X:1
T:Title
%%score { ( 1 4 ) | ( 2 3 ) }
L:1/8
M:4/4
K:D
V:1 treble nm="Grand Piano"
V:4 treble 
V:2 bass 
V:3 bass 
V:1
 z4 z2 z[Q:1/4=88] [DF]/[EG]/ | [FA][FA][FA][FB] FFF[Fd] | [Fd][Ec] [EB]>[^D=c] [E^c]2 z [CE]/F/ | %3
 [CEG][CEG][CEG][CEA] [A,CE][A,CE][A,CE][CGB] | [GB][FA] [Fd]>[GB] [FA]2 z [DF] | %5
 [FA]>[FA] [FA][FA] BBBB | [Gc]>[Gc] cc d2 z d | e>d cB BAAB | c>c BB [CA]2 z2 | %9
 .[Fd]2 .F2 .F2 EF | [CFA][CEG] [CEG]>[=C^DF] [^CEG]2 z2 | .[Ec]2 .[CE]2 .[CE]2 DE | %12
 GF F>=F ^F2 z F | F>F FF G G2 G | A>A AA B2 z B |[M:17/16] B>BcBAdd3/2 z/ =F/ | %16
[M:7/8] F2 [CE]2 D2 z |] %17
V:2
 z4 z2 z [D,A,] | [D,D][D,D][D,D][D,D] [D,A,D][D,A,D][D,A,D][D,A,] | %2
 [A,,A,][A,,A,] [A,,A,]>[A,,A,] [A,,A,]2 z z/ ^D/ | A,,A,,A,,A,, A,,A,,A,,A,, | %4
 [D,D][D,D] [D,D]>[D,D] [D,D]2 z [D,A,] | %5
 [D,D]>[D,D] [D,D][D,D][K:treble] [G,DG][G,DG][G,DG][G,DG] | %6
 [E,E]>[E,E][K:treble] [A,EG][A,EG] [B,DF]2 z [B,F] | %7
 [G,B,G]>[G,B,G] [G,CG][G,DG][K:bass] [F,D][F,D][=F,A,D][F,A,^D] | %8
 [E,A,E]>[E,A,E] [E,^G,D][E,G,D] [A,,A,]2 z2 | .[D,A,]2 .[D,A,D]2 .[D,A,D]2 [A,C]D | %10
 A,,A,, A,,>A,, A,,2 z2 | z4 z2 .F,2 | [D,B,D][D,A,D] [D,A,D]>[D,^G,D] [D,A,D]2 z [D,A,D] | %13
 [D,A,D]>[D,A,D] [D,A,D][D,A,D] [E,A,C] [E,A,C]2 [E,A,C] | %14
 [F,A,D]>[F,A,D] [F,A,D][F,A,D][K:treble] [G,D]2 z [G,DG] | %15
[M:17/16] [^G,D=F]>[G,DF][G,CF][G,DF][A,D^F][K:bass][F,A,D][F,A,D]3/2[=G,B,] | %16
[M:7/8] [A,D]2 [A,,G,]2 [D,F,]2 z |] %17
V:3
 x8 | x8 | z4 z2 z [A,,A,] | x8 | x8 | x4[K:treble] x4 | x2[K:treble] x6 | x4[K:bass] x4 | x8 | %9
 z4 z2 D,2 | x8 | [A,,A,]2 [A,,A,]2 .[A,,G,]2 A,,-[A,,A,C] | x8 | x8 | x4[K:treble] x4 | %15
[M:17/16] x5[K:bass] x7/2 |[M:7/8] x7 |] %17
V:4
 x8 | x8 | x8 | x8 | x8 | x8 | x8 | x8 | x8 | x8 | x8 | x8 | x8 | x8 | x8 | %15
[M:17/16] z/ z/ z/ z/ z/ z/ z/ z/ z/ z/ z/ z/ z/ z D |[M:7/8] x7 |] %17

